X: 39430
T: Tarantella
R: slide
M: 12/8
K: Bminor
|:FBc dcd edc d2 B|BB/c/d cBc e>dc d2 F|
[1 FBc dcd edc d2 B|Bcd cBc edc B3:|
[2 FBc dcd efg f2 F|Bcd c>Bc edc B3||
|:b2 b f2 f b^ab f2 d|dd/e/f g2 g bb/a/g f2 d|
def e2 c cde d2 B|1 B/c/dB c^Ac edc B3:|2 B/c/dB c^Bc edc =B3||

